X: 2
T: Sandy MacIntyre's Trip to Boston
C: John Campbell (1975)
O: Cape Breton
B: BSFC Session Tune Book 2016 p.13 #2
B: BSFC Tune Book XXVII-7
Z: 2020 John Chambers (from handwritten transcription by B.McOwen 2002)
M: 4/4
L: 1/8
K: A
AF |\
"A"E2CE A,ECE | "A7"Acef ecce |\
"D"f2af "A"ecAc | "Bm"dBcA "E7"BFFA |
"A"E2CE A,ECE | Acef ecce |\
"D"f2af "A"ecBc | "E7"dfec "A"A2 :|
|: af |\
"A"eAc2 ecBc | "A7"ABce "D"f2fa |\
"A"eAc2 "F#m"ecBc | "Bm"dfec "E7"B2af |
"A"eAc2 ecBc | "A7"ABce "D"f2fg |\
"F#m"agfe "Bm"fgaf | "E7"ecBc "A"A2 :|
